src/lib/packages/icons/src/assets/line/grid-web-7.svg

<svg xmlns="http://www.w3.org/2000/svg" width="24" height="24" fill="none"><path fill="currentColor" d="M8.5 12.75h-3c-1.409 0-2.25-.841-2.25-2.25v-5c0-1.409.841-2.25 2.25-2.25h3c1.409 0 2.25.841 2.25 2.25v5c0 1.409-.841 2.25-2.25 2.25Zm-3-8c-.589 0-.75.161-.75.75v5c0 .589.161.75.75.75h3c.589 0 .75-.161.75-.75v-5c0-.589-.161-.75-.75-.75h-3Zm3 16h-3c-1.409 0-2.25-.841-2.25-2.25v-1c0-1.409.841-2.25 2.25-2.25h3c1.409 0 2.25.841 2.25 2.25v1c0 1.409-.841 2.25-2.25 2.25Zm-3-4c-.589 0-.75.161-.75.75v1c0 .589.161.75.75.75h3c.589 0 .75-.161.75-.75v-1c0-.589-.161-.75-.75-.75h-3Zm13 4h-3c-1.409 0-2.25-.841-2.25-2.25v-5c0-1.409.841-2.25 2.25-2.25h3c1.409 0 2.25.841 2.25 2.25v5c0 1.409-.841 2.25-2.25 2.25Zm-3-8c-.589 0-.75.161-.75.75v5c0 .589.161.75.75.75h3c.589 0 .75-.161.75-.75v-5c0-.589-.161-.75-.75-.75h-3Zm3-4h-3c-1.409 0-2.25-.841-2.25-2.25v-1c0-1.409.841-2.25 2.25-2.25h3c1.409 0 2.25.841 2.25 2.25v1c0 1.409-.841 2.25-2.25 2.25Zm-3-4c-.589 0-.75.161-.75.75v1c0 .589.161.75.75.75h3c.589 0 .75-.161.75-.75v-1c0-.589-.161-.75-.75-.75h-3Z"/></svg>

<svg width="24" height="24" viewBox="0 0 24 24" fill="none" xmlns="http://www.w3.org/2000/svg">
<path d="M8.5 12.75H5.5C4.091 12.75 3.25 11.909 3.25 10.5V5.5C3.25 4.091 4.091 3.25 5.5 3.25H8.5C9.909 3.25 10.75 4.091 10.75 5.5V10.5C10.75 11.909 9.909 12.75 8.5 12.75ZM5.5 4.75C4.911 4.75 4.75 4.911 4.75 5.5V10.5C4.75 11.089 4.911 11.25 5.5 11.25H8.5C9.089 11.25 9.25 11.089 9.25 10.5V5.5C9.25 4.911 9.089 4.75 8.5 4.75H5.5ZM8.5 20.75H5.5C4.091 20.75 3.25 19.909 3.25 18.5V17.5C3.25 16.091 4.091 15.25 5.5 15.25H8.5C9.909 15.25 10.75 16.091 10.75 17.5V18.5C10.75 19.909 9.909 20.75 8.5 20.75ZM5.5 16.75C4.911 16.75 4.75 16.911 4.75 17.5V18.5C4.75 19.089 4.911 19.25 5.5 19.25H8.5C9.089 19.25 9.25 19.089 9.25 18.5V17.5C9.25 16.911 9.089 16.75 8.5 16.75H5.5ZM18.5 20.75H15.5C14.091 20.75 13.25 19.909 13.25 18.5V13.5C13.25 12.091 14.091 11.25 15.5 11.25H18.5C19.909 11.25 20.75 12.091 20.75 13.5V18.5C20.75 19.909 19.909 20.75 18.5 20.75ZM15.5 12.75C14.911 12.75 14.75 12.911 14.75 13.5V18.5C14.75 19.089 14.911 19.25 15.5 19.25H18.5C19.089 19.25 19.25 19.089 19.25 18.5V13.5C19.25 12.911 19.089 12.75 18.5 12.75H15.5ZM18.5 8.75H15.5C14.091 8.75 13.25 7.909 13.25 6.5V5.5C13.25 4.091 14.091 3.25 15.5 3.25H18.5C19.909 3.25 20.75 4.091 20.75 5.5V6.5C20.75 7.909 19.909 8.75 18.5 8.75ZM15.5 4.75C14.911 4.75 14.75 4.911 14.75 5.5V6.5C14.75 7.089 14.911 7.25 15.5 7.25H18.5C19.089 7.25 19.25 7.089 19.25 6.5V5.5C19.25 4.911 19.089 4.75 18.5 4.75H15.5Z" fill="currentColor"/>
</svg>
